X:765
%%etbk:tnset id:498,pos:1,rep:3x,ant:
%%etbk:pldat 2016-09-04T13:22,2016-05-05T11:33,2016-05-04T14:42,2016-05-03T16:33,2016-05-02T18:16,2016-04-25T18:09,2016-04-09T14:46,2016-04-08T18:21,2016-04-07T15:41,2016-04-05T15:45,2016-04-04T18:55,2016-04-03T13:58,2016-04-02T13:51,2016-03-31T15:27,2016-03-30T16:17,2016-03-28T14:52,2016-03-27T15:21,2016-03-25T17:06,2016-03-23T16:30,2016-03-20T15:00,2016-03-11T17:31,2016-03-10T18:47,2016-03-09T17:49,2016-03-08T17:50,2016-03-05T14:09,2016-02-18T19:20,2016-02-17T15:32,2016-02-16T16:56,2016-02-15T19:25,2016-01-28T18:12,2016-01-27T15:28,2016-01-26T17:31,2016-01-24T11:18,2016-01-21T19:13,2016-01-20T17:59,2016-01-19T18:14,2016-01-18T18:22,2016-01-17T14:03,2016-01-16T14:10,2016-01-14T18:18,2016-01-13T16:41,2016-01-12T17:07,2016-01-11T18:48,2016-01-10T13:20,2016-01-05T16:02
T:Boys of Barr na Sraide
Z: Piano Box Version by Martin Fleischmann
H: Created 2016-01-05 /  Last Modified 2016-02-17
R: song
K:Gmaj
M: 6/8
V:M1  clef=treble  
V:M2  clef=treble   
V:M3  clef=treble
V:M4  clef=treble 
%            End of header, start of tune body:
[V:M1]d|"C"e2e e2d/e/|"G"d2B/A/ "em"G2A|Bd2- "D"d2A|A3 A2d |
[V:M2]z|"C"C6|"G"B,3"em"-B,3|-B,3 "D"A,3-|A,6] |
[V:M3]z|"C"[E6C]|"G"[D3G,]"em"-[G,3B,]-|-[G,3B,] "D"[D3A,]-|[D6A,] |
[V:M4]z|"C"[C6G]|"G"[G3D]"em"[E3G]|-[E3G] "D"[D3A]-|[D6A] |
[V:M1]|:"G"d2B deg|"D/F#"a2g a2b/a/|"C"g2e d2g|1"G"g3-g2d:|2"G"g3 g fg|
[V:M2]|:"G"[D6G,]|"D"[A,6D]|"C"[C6G,]|1"G"[G,6D]:|2"G"[D6B,]|
[V:M3]|:"G"[G6D]|"D"[F6D]|"C"[C6E]|1"G"[B,6D]:|2"G"[B,6D]|
[V:M4]|:"G"[G6D]|"D"[A6D]|"C"[G6C]|1"G"[G6D]:|2"G"[D6B,]|
[V:M1]|"C"e2e e2d/e/|"G"d2B/A/ "em"G2A|Be2- "D"e2A|A3 A2d|
[V:M2]"C"[E6C]|"G"[D3B,]"em"[B,3G,]|-[B,3G,] "D"[D3A,]-|[D6A,]|
[V:M3]"C"[E6C]|"G"[D3B,]"em"[B,3G,]|-[B,3G,] "D"[D3A,]-|[D6A,]|
[V:M4]"C"[E6C]|"G"[D3B,]"em"[B,3G,]|-[B,3G,] "D"[D3A,]-|[D6A,]|


